X:1
T:Title
%%score { ( 1 3 ) | ( 2 4 ) }
L:1/8
M:3/4
K:E
V:1 treble nm="Grand Piano"
V:3 treble 
V:2 bass 
V:4 bass 
V:1
 z2 z2[Q:1/4=100] G>F | E3 [DF] [EG][Ac] | [GB]2 G2 G>F | E3 F GG |[M:2/4] [DF]4 | %5
[M:1/4] [DB]>[FA] |[M:3/4] G3 B c[Ad] | [Ge]2 [EGB]2 [CEd][CEc] | [CEB][CEA] [EG]2 [DF]>E | %9
[M:2/4] E4 |[M:1/4] BB |[M:3/4] B->[GB-] [GB][GB] [Ac][Ad] | [Ge]2 [EGB]2 z2 | %13
 B->[GB-] [GB][GB] [Ac][GB] |[M:9/16] [B,EG][G,B,E]/-[G,B,E]/D-[DB]3/2 |[M:1/4] BB | %16
[M:3/4] B->[GB-] [GB][GB]/[GB]/ [Ac][Ad] | [Ge]2 [EGB]2 [CEd][CEc] | %18
 [CEB][CEA] [B,EG]2 [A,DF]>[Q:1/4=80][G,E][Q:1/4=98][Q:1/4=97][Q:1/4=95][Q:1/4=93][Q:1/4=92][Q:1/4=90][Q:1/4=88][Q:1/4=87][Q:1/4=85][Q:1/4=83][Q:1/4=82][Q:1/4=78][Q:1/4=77] | %19
[M:2/4] [G,E]4 |] %20
V:2
 z2 z2 [E,B,E]>[E,A,E] | [E,G,]3 [B,,B,] [E,B,][E,E] | [E,E]2 [E,B,E]2 [E,B,E]>[E,A,E] | %3
 [E,G,]3 [E,A,E] [E,B,E][E,B,E] |[M:2/4] [B,,B,]4 |[M:1/4] [B,,B,]>[B,,B,] | %6
[M:3/4] [E,B,E]3 [G,B,E] [A,E][F,B,] | [E,B,]2 E,2 A,,A,, | A,,A,, [B,,B,]2 [B,,A,]>[E,G,] | %9
[M:2/4] [E,G,B,]4 |[M:1/4] z2 |[M:3/4] [E,E]>[E,E] [E,E][E,E] [A,E][F,B,] | %12
 [E,B,]2 E,2[K:treble] BB | [E,E]>[E,E] [E,E][E,E] [E,E][E,E] |[M:9/16] E,E,/-E,/ z/ z/ F,3/2 | %15
[M:1/4] z2 |[M:3/4] [E,E]>[E,E] [E,E][E,E]/[E,E]/ [A,E][F,B,] | [E,B,]2 E,2 A,,A,, | %18
 A,,A,, B,,2 B,,>E, |[M:2/4] E,4 |] %20
V:3
 x6 | x6 | x6 | x6 |[M:2/4] x4 |[M:1/4] x2 |[M:3/4] x6 | x6 | x6 |[M:2/4] x4 |[M:1/4] x2 | %11
[M:3/4] G2 z2 z2 | x6 | G2 z2 z2 |[M:9/16] z3/2 z/ [B,F] z3/2 |[M:1/4] x2 |[M:3/4] G2 z2 z2 | x6 | %18
 x6 |[M:2/4] x4 |] %20
V:4
 x6 | x6 | x6 | x6 |[M:2/4] x4 |[M:1/4] x2 |[M:3/4] x6 | x6 | x6 |[M:2/4] x4 |[M:1/4] x2 | %11
[M:3/4] x6 | x4[K:treble] x2 | x6 |[M:9/16] z3/2 z/ B,,-B,,3/2 |[M:1/4] x2 |[M:3/4] x6 | x6 | x6 | %19
[M:2/4] x4 |] %20

